( pcb2gcode 1.3.2 )
( Software-independent Gcode )

G94 ( Millimeters per minute feed rate. )
G21 ( Units == Millimeters. )

G90 ( Absolute coordinates. )
S10000 ( RPM spindle speed. )
G64 P0.01000 ( set maximum deviation from commanded toolpath )
F45.00000 ( Feedrate. )

F45.00000 ( Feedrate. )
M3 ( Spindle on clockwise. )
G04 P0 ( dwell for no time -- G64 should not smooth over this point )
G00 Z2.00000 ( retract )

G00 X9.43912 Y33.29472 ( rapid move to begin. )
F22.50000
G01 Z-0.13500
G04 P0 ( dwell for no time -- G64 should not smooth over this point )
F45.00000
X9.43912 Y33.29472
X9.57816 Y33.21283
X9.77074 Y33.05499
X10.27143 Y32.54661
X10.43470 Y32.29914
X10.51102 Y32.23168
X10.61605 Y32.19492
X10.67204 Y32.19492
X10.78148 Y32.23523
X16.80319 Y26.21353
X16.80319 Y9.30208
X16.69735 Y9.26352
X16.50548 Y9.15115
X16.34012 Y9.00246
X16.23484 Y8.86647
X16.11480 Y8.62174
X16.06400 Y8.40521
X16.05529 Y8.23348
X16.08391 Y8.01293
X16.17858 Y7.75728
X16.30052 Y7.57135
X16.45739 Y7.41374
X16.64279 Y7.29093
X16.84909 Y7.20798
X17.14116 Y7.16419
X17.39976 Y7.19276
X17.61035 Y7.26416
X17.76072 Y7.34763
X17.93273 Y7.48857
X18.07286 Y7.66122
X18.19290 Y7.90595
X18.24370 Y8.12248
X18.25241 Y8.29421
X18.22379 Y8.51476
X18.12912 Y8.77041
X18.00717 Y8.95634
X17.88868 Y9.08100
X17.80314 Y9.14676
X17.80314 Y26.42059
X17.77563 Y26.58094
X17.71805 Y26.69775
X17.65673 Y26.77416
X11.48854 Y32.94229
X11.52883 Y33.05177
X11.52883 Y33.10775
X11.49207 Y33.21275
X10.39652 Y34.31717
X10.35276 Y34.35207
X10.24775 Y34.38882
X10.19177 Y34.38882
X10.08677 Y34.35207
X9.40658 Y33.68080
X9.34740 Y33.58662
X9.33493 Y33.47605
X9.37168 Y33.37102
X9.43912 Y33.29472
G04 P0 ( dwell for no time -- G64 should not smooth over this point )
G00 Z2.00000 ( retract )

G00 X18.64875 Y32.85545 ( rapid move to begin. )
F22.50000
G01 Z-0.13500
G04 P0 ( dwell for no time -- G64 should not smooth over this point )
F45.00000
X18.64875 Y32.85545
X15.88020 Y35.62400
X15.74731 Y35.71793
X15.55922 Y35.76830
X10.08240 Y35.77041
X9.98514 Y35.75976
X9.86180 Y35.71793
X9.72888 Y35.62400
X8.14118 Y34.03632
X8.04725 Y33.90343
X7.99688 Y33.71544
X7.99472 Y33.43300
X8.02228 Y33.27267
X8.07991 Y33.15583
X8.62375 Y32.59693
X8.63584 Y32.47092
X8.66671 Y32.36302
X9.50300 Y31.52673
X9.63490 Y31.49205
X9.63490 Y13.83512
X6.68378 Y10.88397
X6.62251 Y10.80762
X6.56488 Y10.69078
X6.53732 Y10.53040
X6.53732 Y9.12880
X6.54802 Y9.03142
X6.58985 Y8.90818
X6.68378 Y8.77529
X7.21690 Y8.24214
X7.29330 Y8.18082
X7.41012 Y8.12324
X7.57042 Y8.09568
X8.67389 Y8.10257
X8.77453 Y8.12952
X8.90491 Y8.20330
X9.33081 Y8.62375
X9.45677 Y8.63581
X9.56472 Y8.66670
X10.40102 Y9.50300
X10.44008 Y9.66253
X10.44227 Y9.80863
X10.41402 Y9.95209
X10.30536 Y10.16535
X10.20595 Y10.27249
X10.08644 Y10.35661
X9.95202 Y10.41404
X9.80861 Y10.44226
X9.66249 Y10.44008
X9.52804 Y10.37777
X9.38108 Y10.27140
X8.85936 Y9.75667
X8.71491 Y9.57818
X8.64128 Y9.45537
X8.62378 Y9.33089
X8.38855 Y9.09563
X7.77760 Y9.09563
X7.53727 Y9.33594
X7.53727 Y10.32329
X10.48844 Y13.27449
X10.54976 Y13.35089
X10.60732 Y13.46766
X10.63485 Y13.62801
X10.63272 Y31.82543
X10.58237 Y32.01347
X10.44399 Y32.19083
X10.43472 Y32.29914
X10.27143 Y32.54661
X9.68662 Y33.13142
X9.43917 Y33.29469
X9.33089 Y33.30396
X9.07694 Y33.55789
X10.28949 Y34.77046
X15.31957 Y34.77046
X18.65073 Y31.43930
X18.78365 Y31.34537
X18.90689 Y31.30354
X19.00425 Y31.29284
X31.82551 Y31.29500
X32.01350 Y31.34537
X32.19084 Y31.48375
X32.29914 Y31.49302
X32.54667 Y31.65632
X33.15688 Y32.27255
X33.29470 Y32.48857
X33.30384 Y32.59439
X33.60760 Y32.59439
X35.33904 Y30.86295
X35.33904 Y27.20078
X31.50778 Y23.36949
X31.41649 Y23.24269
X31.36521 Y23.07480
X31.36348 Y10.03370
X31.38888 Y9.90607
X31.48353 Y9.74099
X31.49305 Y9.62852
X31.65632 Y9.38110
X32.27253 Y8.77089
X32.48850 Y8.63307
X32.59439 Y8.62390
X32.59439 Y8.32014
X31.81152 Y7.53726
X30.09757 Y7.53726
X29.01741 Y8.61740
X28.94106 Y8.67866
X28.76115 Y8.75319
X28.41381 Y8.76380
X28.40756 Y9.16947
X28.35927 Y9.26970
X28.27230 Y9.33906
X28.16382 Y9.36380
X26.46385 Y9.36380
X26.40822 Y9.35756
X26.30800 Y9.30927
X26.23863 Y9.22230
X26.22014 Y9.16947
X26.21386 Y7.41385
X26.23863 Y7.30539
X26.26842 Y7.25799
X26.35539 Y7.18862
X26.46385 Y7.16386
X28.21947 Y7.17013
X28.31970 Y7.21842
X28.38907 Y7.30539
X28.41381 Y7.41385
X28.41381 Y7.76386
X28.45679 Y7.76386
X29.53689 Y6.68377
X29.64078 Y6.60491
X29.72993 Y6.56422
X29.89041 Y6.53732
X32.01863 Y6.53732
X32.11604 Y6.54801
X32.23930 Y6.58984
X32.37220 Y6.68377
X33.44794 Y7.75951
X33.50925 Y7.83592
X33.56681 Y7.95268
X33.59434 Y8.11303
X33.59434 Y8.83332
X33.58370 Y8.93063
X33.54187 Y9.05397
X33.46953 Y9.16228
X33.30399 Y9.33083
X33.29190 Y9.45682
X33.26104 Y9.56472
X32.42475 Y10.40101
X32.36127 Y10.41999
X32.36127 Y22.80881
X36.19258 Y26.64015
X36.28649 Y26.77304
X36.32835 Y26.89638
X36.33899 Y26.99366
X36.33899 Y31.07001
X36.32835 Y31.16732
X36.28651 Y31.29066
X36.19258 Y31.42358
X34.16823 Y33.44793
X34.03534 Y33.54186
X33.84725 Y33.59223
X32.99711 Y33.58369
X32.81725 Y33.50925
X32.59691 Y33.30399
X32.47090 Y33.29190
X32.36303 Y33.26104
X31.52673 Y32.42474
X31.49203 Y32.29279
X19.21141 Y32.29279
X18.64875 Y32.85545
G04 P0 ( dwell for no time -- G64 should not smooth over this point )
G00 Z2.00000 ( retract )

G00 X19.21522 Y36.17769 ( rapid move to begin. )
F22.50000
G01 Z-0.13500
G04 P0 ( dwell for no time -- G64 should not smooth over this point )
F45.00000
X19.21522 Y36.17769
X19.25889 Y35.81473
X19.37705 Y35.46878
X19.56455 Y35.15491
X19.81322 Y34.88689
X20.06691 Y34.70256
X20.39869 Y34.54889
X20.75510 Y34.46756
X21.12060 Y34.46208
X21.47933 Y34.53277
X21.81550 Y34.67643
X22.15332 Y34.92187
X22.39386 Y35.19720
X22.57191 Y35.51651
X22.67968 Y35.86583
X22.71247 Y36.22999
X22.66881 Y36.59296
X22.55065 Y36.93891
X22.36315 Y37.25277
X22.11448 Y37.52080
X21.86079 Y37.70512
X21.52901 Y37.85879
X21.17260 Y37.94012
X20.80707 Y37.94559
X20.44837 Y37.87492
X20.11220 Y37.73126
X19.77438 Y37.48582
X19.53384 Y37.21048
X19.35579 Y36.89118
X19.24802 Y36.54185
X19.21522 Y36.17769
G04 P0 ( dwell for no time -- G64 should not smooth over this point )
G00 Z2.00000 ( retract )

G00 X34.35342 Y31.83818 ( rapid move to begin. )
F22.50000
G01 Z-0.13500
G04 P0 ( dwell for no time -- G64 should not smooth over this point )
F45.00000
X34.35342 Y31.83818
X33.63704 Y32.55604
X33.55495 Y32.58753
X33.47522 Y32.59261
X33.37105 Y32.55604
X33.32726 Y32.52114
X33.15688 Y32.27255
X33.05502 Y32.15698
X32.54667 Y31.65632
X32.29917 Y31.49305
X32.23168 Y31.41669
X32.19493 Y31.31166
X32.19493 Y31.25568
X32.23524 Y31.14626
X19.34032 Y18.25137
X19.27905 Y18.17501
X19.22142 Y18.05817
X19.19386 Y17.89780
X19.19386 Y9.23939
X19.04548 Y9.15115
X18.91497 Y9.03912
X18.74807 Y8.82352
X18.65480 Y8.62174
X18.61167 Y8.45525
X18.59529 Y8.23348
X18.62391 Y8.01293
X18.71858 Y7.75728
X18.80956 Y7.61133
X18.95901 Y7.44669
X19.13854 Y7.31550
X19.38909 Y7.20798
X19.68116 Y7.16419
X19.93976 Y7.19276
X20.15035 Y7.26416
X20.34222 Y7.37653
X20.50758 Y7.52522
X20.61286 Y7.66122
X20.73290 Y7.90595
X20.78370 Y8.12248
X20.78985 Y8.34476
X20.76379 Y8.51476
X20.66912 Y8.77041
X20.57814 Y8.91636
X20.42868 Y9.08100
X20.19381 Y9.24145
X20.19381 Y17.69066
X32.94230 Y30.43920
X32.99719 Y30.41136
X33.10775 Y30.39889
X33.21276 Y30.43564
X33.25652 Y30.47054
X34.31717 Y31.53120
X34.37636 Y31.62540
X34.38883 Y31.67999
X34.38883 Y31.73597
X34.35342 Y31.83818
G04 P0 ( dwell for no time -- G64 should not smooth over this point )
G00 Z2.00000 ( retract )

G00 X34.45522 Y20.93769 ( rapid move to begin. )
F22.50000
G01 Z-0.13500
G04 P0 ( dwell for no time -- G64 should not smooth over this point )
F45.00000
X34.45522 Y20.93769
X34.49889 Y20.57473
X34.61705 Y20.22878
X34.80455 Y19.91491
X35.05322 Y19.64689
X35.30691 Y19.46256
X35.63869 Y19.30889
X35.99510 Y19.22756
X36.36060 Y19.22208
X36.71933 Y19.29277
X37.05550 Y19.43643
X37.39332 Y19.68187
X37.63386 Y19.95720
X37.81191 Y20.27651
X37.91968 Y20.62583
X37.95247 Y20.98999
X37.90881 Y21.35296
X37.79065 Y21.69891
X37.60315 Y22.01277
X37.35448 Y22.28080
X37.10079 Y22.46512
X36.76901 Y22.61879
X36.41260 Y22.70012
X36.04707 Y22.70559
X35.68837 Y22.63492
X35.35220 Y22.49126
X35.01438 Y22.24582
X34.77384 Y21.97048
X34.59579 Y21.65118
X34.48802 Y21.30185
X34.45522 Y20.93769
G04 P0 ( dwell for no time -- G64 should not smooth over this point )
G00 Z2.00000 ( retract )

G00 X33.26102 Y9.56474 ( rapid move to begin. )
F22.50000
G01 Z-0.13500
G04 P0 ( dwell for no time -- G64 should not smooth over this point )
F45.00000
X33.26102 Y9.56474
X33.36894 Y9.53386
X33.49493 Y9.52179
X33.59439 Y9.42233
X33.59439 Y7.90592
X31.07677 Y5.38830
X25.67333 Y5.38830
X25.27381 Y5.78781
X25.27381 Y7.28827
X25.42222 Y7.37653
X25.58758 Y7.52522
X25.71963 Y7.70417
X25.79535 Y7.85857
X25.86370 Y8.12248
X25.86985 Y8.34476
X25.84379 Y8.51476
X25.74912 Y8.77041
X25.65814 Y8.91636
X25.50868 Y9.08100
X25.28491 Y9.23675
X25.07861 Y9.31971
X24.91016 Y9.35433
X24.74851 Y9.36253
X24.52794 Y9.33492
X24.31735 Y9.26352
X24.12548 Y9.15115
X23.96012 Y9.00246
X23.85484 Y8.86647
X23.75235 Y8.66911
X23.69167 Y8.45525
X23.67785 Y8.18293
X23.71659 Y7.96401
X23.79858 Y7.75728
X23.88956 Y7.61133
X24.03901 Y7.44669
X24.27386 Y7.28624
X24.27386 Y5.78512
X23.88852 Y5.39978
X14.37505 Y5.39978
X11.25806 Y8.51674
X11.30561 Y8.62207
X11.33810 Y8.76452
X11.34028 Y8.91062
X11.31204 Y9.05408
X11.25461 Y9.18844
X11.17048 Y9.30795
X11.06335 Y9.40736
X10.93787 Y9.48232
X10.79954 Y9.52954
X10.65446 Y9.54699
X10.50892 Y9.53388
X10.40104 Y9.50302
X9.56475 Y8.66673
X9.53386 Y8.55883
X9.52180 Y8.43282
X8.97275 Y7.88377
X7.57522 Y7.88377
X6.53725 Y8.92174
X6.53725 Y11.40167
X8.85942 Y13.72384
X8.95332 Y13.85673
X9.00369 Y14.04477
X9.00582 Y30.60278
X9.14186 Y30.64938
X9.26734 Y30.72439
X9.40732 Y30.86437
X9.51603 Y31.07765
X9.54699 Y31.27326
X9.53389 Y31.41880
X9.50303 Y31.52670
X8.66673 Y32.36300
X8.55881 Y32.39388
X8.43282 Y32.40595
X7.99467 Y32.84410
X7.99467 Y33.88987
X9.87529 Y35.77048
X15.73377 Y35.77048
X18.64878 Y32.85548
X18.78170 Y32.76155
X18.96961 Y32.71118
X30.69277 Y32.70902
X30.82376 Y32.55329
X30.98980 Y32.44547
X31.12818 Y32.39820
X31.36719 Y32.38568
X31.52671 Y32.42472
X31.62180 Y32.51979
X32.36300 Y33.26101
X32.40207 Y33.42055
X32.40425 Y33.56665
X32.37601 Y33.71011
X32.31858 Y33.84448
X32.23445 Y33.96398
X32.12731 Y34.06340
X32.00184 Y34.13835
X31.86351 Y34.18557
X31.71842 Y34.20302
X31.48203 Y34.16558
X31.34936 Y34.10411
X31.21302 Y33.99898
X30.92300 Y33.70897
X19.20946 Y33.70897
X16.29440 Y36.62402
X16.19633 Y36.69982
X16.06999 Y36.75278
X15.94083 Y36.77043
X9.66818 Y36.77043
X9.57092 Y36.75979
X9.44758 Y36.71795
X9.31466 Y36.62402
X7.14118 Y34.45055
X7.04725 Y34.31765
X6.99688 Y34.12967
X6.99472 Y32.63696
X7.02228 Y32.47664
X7.07992 Y32.35980
X7.14118 Y32.28344
X7.72574 Y31.69891
X7.73783 Y31.57290
X7.78091 Y31.43320
X7.85203 Y31.30564
X8.00587 Y31.13590
X8.00587 Y14.28447
X5.68375 Y11.96235
X5.61860 Y11.88079
X5.57113 Y11.78765
X5.53730 Y11.60878
X5.53730 Y8.71458
X5.54799 Y8.61720
X5.58983 Y8.49396
X5.68375 Y8.36106
X7.01454 Y7.03028
X7.14746 Y6.93635
X7.33536 Y6.88598
X9.17984 Y6.88382
X9.34021 Y6.91138
X9.45705 Y6.96902
X9.53340 Y7.03028
X10.22883 Y7.72573
X10.35479 Y7.73780
X10.55098 Y7.80968
X13.81437 Y4.54629
X13.94729 Y4.45236
X14.07053 Y4.41052
X14.16789 Y4.39983
X24.09563 Y4.39983
X24.25601 Y4.42739
X24.37285 Y4.48502
X24.77516 Y4.87230
X25.18905 Y4.47349
X25.30586 Y4.41591
X25.43347 Y4.39051
X31.28388 Y4.38835
X31.46275 Y4.42218
X31.55589 Y4.46966
X31.63745 Y4.53481
X34.44793 Y7.34529
X34.50925 Y7.42169
X34.56681 Y7.53846
X34.59434 Y7.69881
X34.59434 Y9.62936
X34.58370 Y9.72667
X34.54186 Y9.85001
X34.44793 Y9.98293
X34.20201 Y10.22885
X34.16559 Y10.44569
X34.07572 Y10.62209
X33.57473 Y11.13898
X33.43836 Y11.24411
X33.30570 Y11.30558
X33.06930 Y11.34302
X32.92421 Y11.32557
X32.78588 Y11.27835
X32.66041 Y11.20335
X32.55330 Y11.10398
X32.46917 Y10.98445
X32.39820 Y10.79956
X32.38075 Y10.65448
X32.39386 Y10.50894
X32.42472 Y10.40104
X33.26102 Y9.56474
G04 P0 ( dwell for no time -- G64 should not smooth over this point )
G00 Z2.00000 ( retract )

G00 X31.67085 Y7.54097 ( rapid move to begin. )
F22.50000
G01 Z-0.13500
G04 P0 ( dwell for no time -- G64 should not smooth over this point )
F45.00000
X31.67085 Y7.54097
X31.79056 Y7.55136
X31.88474 Y7.61054
X32.52114 Y8.24691
X32.55604 Y8.29070
X32.58754 Y8.37277
X32.59262 Y8.45253
X32.55604 Y8.55669
X32.48858 Y8.63302
X32.24111 Y8.79632
X31.73272 Y9.29698
X31.63090 Y9.41252
X31.46046 Y9.66114
X31.41670 Y9.69604
X31.31167 Y9.73279
X31.20113 Y9.72032
X31.14626 Y9.69250
X28.21709 Y12.62168
X28.08419 Y12.71561
X27.89611 Y12.76598
X24.31872 Y12.76809
X24.15842 Y12.74058
X24.04160 Y12.68300
X23.96520 Y12.62168
X21.90341 Y10.55989
X21.84214 Y10.48354
X21.78451 Y10.36670
X21.75911 Y10.23901
X21.75695 Y9.25222
X21.58548 Y9.15115
X21.45497 Y9.03912
X21.31484 Y8.86647
X21.19480 Y8.62174
X21.14400 Y8.40521
X21.13785 Y8.18293
X21.16391 Y8.01293
X21.23630 Y7.80272
X21.34956 Y7.61133
X21.53739 Y7.41374
X21.72279 Y7.29093
X21.92909 Y7.20798
X22.09754 Y7.17336
X22.25919 Y7.16515
X22.43028 Y7.18258
X22.69035 Y7.26416
X22.88222 Y7.37653
X23.04758 Y7.52522
X23.15286 Y7.66122
X23.27290 Y7.90595
X23.32370 Y8.12248
X23.33241 Y8.29421
X23.30379 Y8.51476
X23.20912 Y8.77041
X23.11814 Y8.91636
X22.96868 Y9.08100
X22.75690 Y9.23007
X22.75690 Y9.99921
X24.52583 Y11.76814
X27.65646 Y11.76814
X30.43920 Y8.98545
X30.41137 Y8.93053
X30.39889 Y8.81999
X30.43565 Y8.71496
X30.47055 Y8.67120
X31.53120 Y7.61054
X31.57497 Y7.57564
X31.67085 Y7.54097
G04 P0 ( dwell for no time -- G64 should not smooth over this point )
G00 Z2.00000 ( retract )

G00 X8.72736 Y11.49804 ( rapid move to begin. )
F22.50000
G01 Z-0.13500
G04 P0 ( dwell for no time -- G64 should not smooth over this point )
F45.00000
X8.72736 Y11.49804
X8.67120 Y11.45717
X7.61055 Y10.39652
X7.54522 Y10.27536
X7.55137 Y10.13718
X7.61055 Y10.04297
X8.29068 Y9.37168
X8.39571 Y9.33492
X8.45169 Y9.33492
X8.55670 Y9.37168
X8.60046 Y9.40658
X8.77092 Y9.65524
X8.87272 Y9.77076
X9.38108 Y10.27140
X9.66114 Y10.46726
X9.69604 Y10.51105
X9.73279 Y10.61605
X9.72032 Y10.72662
X9.69254 Y10.78145
X10.70566 Y11.79463
X12.26449 Y11.79463
X14.11386 Y9.94526
X14.11386 Y9.23939
X13.96548 Y9.15115
X13.83497 Y9.03912
X13.69484 Y8.86647
X13.57480 Y8.62174
X13.52400 Y8.40521
X13.51785 Y8.18293
X13.55659 Y7.96401
X13.63858 Y7.75728
X13.76052 Y7.57135
X13.91739 Y7.41374
X14.10279 Y7.29093
X14.30909 Y7.20798
X14.47754 Y7.17336
X14.63919 Y7.16515
X14.81028 Y7.18258
X15.02384 Y7.24422
X15.22072 Y7.34763
X15.42758 Y7.52522
X15.55963 Y7.70417
X15.65290 Y7.90595
X15.70370 Y8.12248
X15.70985 Y8.34476
X15.68379 Y8.51476
X15.58912 Y8.77041
X15.46717 Y8.95634
X15.31030 Y9.11394
X15.11381 Y9.24145
X15.11381 Y10.15232
X15.10317 Y10.24963
X15.06133 Y10.37297
X14.96740 Y10.50589
X12.82512 Y12.64818
X12.69222 Y12.74211
X12.56886 Y12.78396
X12.47155 Y12.79458
X10.49858 Y12.79458
X10.33828 Y12.76707
X10.22146 Y12.70949
X10.14506 Y12.64818
X8.98540 Y11.48854
X8.87595 Y11.52882
X8.81999 Y11.52882
X8.72736 Y11.49804
G04 P0 ( dwell for no time -- G64 should not smooth over this point )
G00 Z2.00000 ( retract )

G00 X3.97522 Y20.93769 ( rapid move to begin. )
F22.50000
G01 Z-0.13500
G04 P0 ( dwell for no time -- G64 should not smooth over this point )
F45.00000
X3.97522 Y20.93769
X4.01889 Y20.57473
X4.13705 Y20.22878
X4.32455 Y19.91491
X4.57322 Y19.64689
X4.82691 Y19.46256
X5.15869 Y19.30889
X5.51510 Y19.22756
X5.88060 Y19.22208
X6.23933 Y19.29277
X6.57550 Y19.43643
X6.91332 Y19.68187
X7.15386 Y19.95720
X7.33191 Y20.27651
X7.43968 Y20.62583
X7.47247 Y20.98999
X7.42881 Y21.35296
X7.31065 Y21.69891
X7.12315 Y22.01277
X6.87448 Y22.28080
X6.62079 Y22.46512
X6.28901 Y22.61879
X5.93260 Y22.70012
X5.56707 Y22.70559
X5.20837 Y22.63492
X4.87220 Y22.49126
X4.53438 Y22.24582
X4.29384 Y21.97048
X4.11579 Y21.65118
X4.00802 Y21.30185
X3.97522 Y20.93769

G04 P0 ( dwell for no time -- G64 should not smooth over this point )
G00 Z10.000 ( retract )

M5 ( Spindle off. )
M9 ( Coolant off. )
M2 ( Program end. )

