( pcb2gcode 1.3.2 )
( Software-independent Gcode )
( This file uses a mill head of 2.00000mm to drill the 1 bit sizes. )
( Bit sizes: [0.11800] )

G94       (Millimeters per minute feed rate.)
G21       (Units == Millimeters.)
G91.1     (Incremental arc distance mode.)
G90       (Absolute coordinates.)
S10000    (RPM spindle speed.)
F45.00000 (Feedrate)
M3        (Spindle on clockwise.)
G00 Z2.00000

G0 X6.22243 Y20.96383
G1 Z-2.50000
G2 X6.22243 Y20.96383 I-0.49860 J0
G0 Z2.00000
G0 X21.46243 Y36.20383
G1 Z-2.50000
G2 X21.46243 Y36.20383 I-0.49860 J0
G0 Z2.00000
G0 X36.70243 Y20.96383
G1 Z-2.50000
G2 X36.70243 Y20.96383 I-0.49860 J0
G0 Z2.00000
G00 Z10.000 ( All done -- retract )

M5      (Spindle off.)
M9      (Coolant off.)
M2      (Program end.)

